X:440
T:Kerfank 1870
Z:Jack Campin, http://www.campin.me.uk/
F:Jack Campin's Nine-Note Tunebook
% last edit 03-02-2013
G:Breton an dro
N:The usual tune for this song (by Tri Yann) is part B of "Erwan's
N:An Dros".  I got this one off a Belgian diatonic accordion site.
M:4/4
L:1/16
Q:1/4=144
K:DMin
A2AB A2AG F2E2 D4|G2G2 EDC2 DEFG ABA2|\
A2AB A2AG F2E2 D4|G2G2 EDC2 DEFE D4 :|
A2c2 D4   A2c2 E4|G2G2 EDC2 DEFG ABA2|\
A2c2 D4   A2c2 E4|G2G2 EDC2 DEFE D4 :|

